X: 13477
T: Flower Of Swiss Cottage
R: reel
M: 4/4
K: Dminor
|:defd e2dA|cAAc dcA2|defd gfed|cAA2 AFAc|
defd e2dA|cAAc dcA2|FBAG FDFD|1 E2EC D2D2:|2 E2ED E2ED||
|:EFED CDFD|E3E FEC2-|CAce gfed|cAA2 a3a|
agfe d2df|edcA dcA2|ABAG F2FD|1 E2ED E2ED:|2 E2EC D2D2||

